X:7478
T:the Willow Tree
O:england
M:4/4
A:North-West
R:Slow air
K:Em
G>E|\
EDB,G, A,2B,2| E6 EF| G3G FAGF| E6 EF|
G3G FAGF| EFED B,2G>E| EDB,G, A,2B,2| (E4 G3)E|\
EDB,G, A,2B,2| (G2E4)|]
